Yaru++/mimetypes/16/application-msword.svg

<svg height="16" viewBox="0 0 4.233125 4.233125" width="16" xmlns="http://www.w3.org/2000/svg" xmlns:xlink="http://www.w3.org/1999/xlink"><linearGradient id="a" gradientUnits="userSpaceOnUse" x1="2.116712" x2="2.116712" y1=".264571" y2="3.968556"><stop offset="0" stop-color="#fff"/><stop offset=".125" stop-color="#fff" stop-opacity=".098039"/><stop offset=".92500001" stop-color="#fff" stop-opacity=".098039"/><stop offset="1" stop-color="#fff" stop-opacity=".498039"/></linearGradient><linearGradient id="b" gradientTransform="matrix(0 -.01021733 .01033057 0 -1.197959 4.642008)" gradientUnits="userSpaceOnUse" x1="441.37927" x2="40.018539" y1="240.30267" y2="395.24066"><stop offset="0" stop-color="#2a6dcf"/><stop offset="1" stop-color="#3979d7"/></linearGradient><path d="m1.3483185.2645706c-.1902366 0-.3444308.00368-.48573255.027388-.14130436.0237323-.28264046.0730958-.39065659.180858-.10801348.1077594-.15783472.2495506-.18137354.3911698-.02354675.1416218-.02677187.2964457-.02584852.4872856v.7652908 1.0314115c-.00079371.1900038.002381.3445631.0258485.4857352.0235468.1416192.0733574.2834104.18137354.3911699.10801613.1077621.24935223.1571389.39065659.1808576.14130167.023732.29549597.027388.48573257.027388h1.5367831c.1902367 0 .3440949-.00362.4852167-.027388.1411245-.0237584.2824765-.0735294.3901381-.1813736.1076616-.1078441.1571653-.249413.1808576-.3906539.0236949-.1412435.0273883-.2951308.0273883-.4857352v-1.0314115-.7937109l-1.0582812-1.0582813z" opacity=".1"/><path d="m1.2845041.13228811c-.80473288 0-.89132145.0817496-.88737671.87924919v1.1050281 1.1050256c-.003942.7975022.0826438.8792518.88737671.8792518h1.6645336c.8047356 0 .8873794-.081739.8873794-.8792518v-1.1050256-1.1338742l-.8598535-.85040309z" fill="url(#b)"/><g fill="#fff"><g enable-background="new" stroke-width="3" transform="matrix(.0881901 0 0 .0881901 -28.220511 -4.9383)"><path d="m328 240.17383-4 .61719v6.41992l4 .62109zm-.62483 2.75976-.58984 2.47852-.48438-.0371c-.11118-.55339-.24232-1.10425-.34179-1.66016-.0978.54003-.22392 1.07465-.33594 1.61133-.1605-.008-.32108-.0184-.48242-.0293-.13877-.73564-.30207-1.46582-.43164-2.20313.14295-.007.28674-.0126.42969-.0176.0861.5325.18257 1.06237.25781 1.59571.11787-.54671.23843-1.09392.35547-1.64063.15883-.009.31773-.0151.47656-.0234.11118.56427.22533 1.1277.3457 1.68946.0945-.58015.19964-1.15897.30078-1.73829.16719-.006.33365-.0154.5-.0254z" stroke-width="1.333333" transform="matrix(3 0 0 3 -640.00198 -648.50002)"/><path d="m346.99805 75h9l-.002 17.499991h-8.99805z" stroke-width="4"/></g><path d="m2.1167101.2645706v3.7039844h.7683915c.7428341 0 .8190304-.076236.8190304-.8205807v-1.0314115-1.0582813l-.7937109-.7937109z" opacity=".1"/><path d="m.52928821 2.1165628v1.0314115c-.003651.7443342.0761989.8205807.81903029.8205807h1.5367831c.7428341 0 .8190304-.076236.8190304-.8205807v-1.0314115z" opacity=".1"/></g><path d="m1.3483185.00000031c-.1902366 0-.3444308.003678-.48573255.0273883-.14130436.02373198-.28264046.0730955-.39065659.18085759-.10801348.1077595-.15783472.2495533-.18137354.3911699-.02354675.1416245-.02676128.2964457-.02584852.4872856v1.0298611 1.0314115c-.00079371.1900038.002381.3445631.0258485.4857352.0235468.1416192.0733574.2834104.18137354.3911699.10801613.1077621.24935223.1571389.39065659.1808576.14130167.023732.29549597.027388.48573257.027388h1.5367831c.1902367 0 .3440949-.00362.4852167-.027388.1411245-.0237584.2824765-.0735294.3901381-.1813736.1076616-.1078441.1571653-.249413.1808576-.3906539.0236949-.1412435.0273883-.2951308.0273883-.4857352v-1.0314115-1.1678292l-.9487333-.94873329zm0 .26457029h1.5621026l.7937109.7937109v1.0582813 1.0314115c0 .7443448-.076196.8205807-.8190304.8205807h-1.5367831c-.74283139 0-.82268137-.076246-.81903029-.8205807v-1.0314115-1.0314115c-.0036405-.7443342.0761989-.8205807.81903029-.8205807z" opacity=".4"/><path d="m1.3483185.2645706c-.74283139 0-.82267079.076246-.81903029.8205807v1.0314115 1.0314115c-.003651.7443342.0761989.8205807.81903029.8205807h1.5367831c.7428341 0 .8190304-.076236.8190304-.8205807v-1.0314115-1.0582813l-.7937109-.7937109zm0 .2645703h1.5621026l.5291406.5291406v1.0582813 1.0314115c0 .1815667-.00582.3159975-.019631.3984058-.013811.082406-.029841.09959-.034103.1038651-.00426.00426-.021245.020293-.1033491.034103-.082112.013816-.2161962.019636-.3973767.019636h-1.5367834c-.1811778 0-.3153969-.0063-.39788727-.02016-.082493-.013837-.10001551-.029235-.10438092-.033587-.004365-.00437-.0199486-.021324-.0335898-.1033491-.0136254-.08203-.0194988-.216564-.0185993-.3978899v-.0005292-1.0319062-1.0319274-.0005291c-.00079371-.1813286.004974-.31586.0185993-.39789.0136254-.08203.0292218-.098992.0335898-.1033491.004365-.00436.02188-.019737.10438092-.033587.0824904-.013837.21670947-.02016.39788727-.02016z" fill="url(#a)" opacity=".4"/><path d="m3.704132 1.3228519v-.2645704l-.7937109-.7937109h-.2645704v.4049434.01553.00833c0 .5476103.073304.6320506.6221715.6293652z" fill="#165d7c" opacity=".6"/><path d="m3.704132 1.058181-.7937109-.7936104v.2943848.012832.00688c0 .4517776.020822.481764.4736364.4795495z" fill="#80a9e5"/></svg>

<?xml version="1.0" encoding="UTF-8" standalone="no"?>
<svg
   xmlns:dc="http://purl.org/dc/elements/1.1/"
   xmlns:cc="http://creativecommons.org/ns#"
   xmlns:rdf="http://www.w3.org/1999/02/22-rdf-syntax-ns#"
   xmlns:svg="http://www.w3.org/2000/svg"
   xmlns="http://www.w3.org/2000/svg"
   xmlns:xlink="http://www.w3.org/1999/xlink"
   xmlns:sodipodi="http://sodipodi.sourceforge.net/DTD/sodipodi-0.dtd"
   xmlns:inkscape="http://www.inkscape.org/namespaces/inkscape"
   height="16"
   viewBox="0 0 4.233125 4.233125"
   width="16"
   version="1.1"
   id="svg33"
   sodipodi:docname="application-msword.svg"
   inkscape:version="0.92.5 (2060ec1f9f, 2020-04-08)">
  <metadata
     id="metadata39">
    <rdf:RDF>
      <cc:Work
         rdf:about="">
        <dc:format>image/svg+xml</dc:format>
        <dc:type
           rdf:resource="http://purl.org/dc/dcmitype/StillImage" />
      </cc:Work>
    </rdf:RDF>
  </metadata>
  <defs
     id="defs37">
    <linearGradient
       gradientTransform="matrix(0.26457031,0,0,0.26457031,-84.66235,-62.438592)"
       inkscape:collect="always"
       xlink:href="#linearGradient927"
       id="linearGradient993"
       x1="328"
       y1="237"
       x2="328"
       y2="251"
       gradientUnits="userSpaceOnUse" />
    <linearGradient
       inkscape:collect="always"
       id="linearGradient927">
      <stop
         style="stop-color:#ffffff;stop-opacity:1;"
         offset="0"
         id="stop923" />
      <stop
         id="stop933"
         offset="0.125"
         style="stop-color:#ffffff;stop-opacity:0.09803922" />
      <stop
         id="stop931"
         offset="0.92500001"
         style="stop-color:#ffffff;stop-opacity:0.09803922" />
      <stop
         style="stop-color:#ffffff;stop-opacity:0.49803922"
         offset="1"
         id="stop925" />
    </linearGradient>
    <linearGradient
       inkscape:collect="always"
       xlink:href="#linearGradient4338-3"
       id="linearGradient920"
       gradientUnits="userSpaceOnUse"
       gradientTransform="matrix(0,-0.01021733,0.01033057,0,-1.1979591,4.6420081)"
       x1="441.37927"
       y1="240.30267"
       x2="40.018539"
       y2="395.24066" />
    <linearGradient
       inkscape:collect="always"
       id="linearGradient4338-3">
      <stop
         style="stop-color:#2a6dcf;stop-opacity:1"
         offset="0"
         id="stop4340-0" />
      <stop
         style="stop-color:#3979d7;stop-opacity:1"
         offset="1"
         id="stop4342-7" />
    </linearGradient>
  </defs>
  <sodipodi:namedview
     pagecolor="#ffffff"
     bordercolor="#666666"
     borderopacity="1"
     objecttolerance="10"
     gridtolerance="10"
     guidetolerance="10"
     inkscape:pageopacity="0"
     inkscape:pageshadow="2"
     inkscape:window-width="834"
     inkscape:window-height="480"
     id="namedview35"
     showgrid="false"
     inkscape:zoom="14.75"
     inkscape:cx="8"
     inkscape:cy="8"
     inkscape:window-x="0"
     inkscape:window-y="28"
     inkscape:window-maximized="0"
     inkscape:current-layer="svg33" />
  <linearGradient
     id="a"
     gradientUnits="userSpaceOnUse"
     x1="328"
     x2="328"
     y1="237"
     y2="251">
    <stop
       offset="0"
       stop-color="#fff"
       id="stop2" />
    <stop
       offset=".125"
       stop-color="#fff"
       stop-opacity=".098039"
       id="stop4" />
    <stop
       offset=".92500001"
       stop-color="#fff"
       stop-opacity=".098039"
       id="stop6" />
    <stop
       offset="1"
       stop-color="#fff"
       stop-opacity=".498039"
       id="stop8" />
  </linearGradient>
  <clipPath
     id="b">
    <path
       d="m325.09646 237c-2.80769 0-3.10979.28839-3.09603 3.10176v3.89824 3.89824c-.0138 2.81337.28834 3.10176 3.09603 3.10176h5.8075c2.8077 0 3.09604-.28835 3.09604-3.10176v-3.89824-3.89824c0-2.8134-.28835-3.10176-3.09604-3.10176z"
       id="path11" />
  </clipPath>
  <linearGradient
     id="c"
     gradientTransform="matrix(0 -.00953618 -.00953591 0 5.176271 4.473642)"
     gradientUnits="userSpaceOnUse"
     x1="459.03448"
     x2="35.310345"
     y1="419.23337"
     y2="207.36522">
    <stop
       offset="0"
       stop-color="#2a6dcf"
       id="stop14" />
    <stop
       offset="1"
       stop-color="#3979d7"
       id="stop16" />
  </linearGradient>
  <path
     style="color:#000000;font-style:normal;font-variant:normal;font-weight:normal;font-stretch:normal;font-size:medium;line-height:normal;font-family:sans-serif;font-variant-ligatures:normal;font-variant-position:normal;font-variant-caps:normal;font-variant-numeric:normal;font-variant-alternates:normal;font-feature-settings:normal;text-indent:0;text-align:start;text-decoration:none;text-decoration-line:none;text-decoration-style:solid;text-decoration-color:#000000;letter-spacing:normal;word-spacing:normal;text-transform:none;writing-mode:lr-tb;direction:ltr;text-orientation:mixed;dominant-baseline:auto;baseline-shift:baseline;text-anchor:start;white-space:normal;shape-padding:0;clip-rule:nonzero;display:inline;overflow:visible;visibility:visible;opacity:0.1;isolation:auto;mix-blend-mode:normal;color-interpolation:sRGB;color-interpolation-filters:linearRGB;solid-color:#000000;solid-opacity:1;vector-effect:none;fill:#000000;fill-opacity:1;fill-rule:nonzero;stroke:none;stroke-width:0.52914065;stroke-linecap:butt;stroke-linejoin:miter;stroke-miterlimit:4;stroke-dasharray:none;stroke-dashoffset:0;stroke-opacity:1;marker:none;color-rendering:auto;image-rendering:auto;shape-rendering:auto;text-rendering:auto;enable-background:accumulate"
     d="m 1.3483185,0.2645706 c -0.1902366,0 -0.3444308,0.00368 -0.48573255,0.027388 C 0.72128159,0.3156909 0.57994549,0.3650544 0.47192936,0.4728166 0.36391588,0.580576 0.31409464,0.7223672 0.29055582,0.8639864 0.26700907,1.0056082 0.26378395,1.1604321 0.2647073,1.351272 V 2.1165628 3.1479743 C 0.26391359,3.3379781 0.2670883,3.4925374 0.2905558,3.6337095 0.3141026,3.7753287 0.3639132,3.9171199 0.47192934,4.0248794 0.57994547,4.1326415 0.72128157,4.1820183 0.86258593,4.205737 1.0038876,4.229469 1.1580819,4.233125 1.3483185,4.233125 h 1.5367831 c 0.1902367,0 0.3440949,-0.00362 0.4852167,-0.027388 C 3.5114428,4.1819786 3.6527948,4.1322076 3.7604564,4.0243634 3.868118,3.9165193 3.9176217,3.7749504 3.941314,3.6337095 3.9650089,3.492466 3.9687023,3.3385787 3.9687023,3.1479743 V 2.1165628 1.3228519 L 2.9104211,0.2645706 Z"
     id="path997"
     inkscape:connector-curvature="0"
     sodipodi:nodetypes="scscccccccsscscscccs" />
  <path
     style="color:#000000;display:inline;overflow:visible;visibility:visible;fill:url(#linearGradient920);fill-opacity:1;fill-rule:nonzero;stroke:none;stroke-width:0.26457033;marker:none;enable-background:accumulate"
     d="m 1.2845041,0.13228811 c -0.80473288,0 -0.89132145,0.0817496 -0.88737671,0.87924919 V 2.1165654 3.221591 c -0.003942,0.7975022 0.0826438,0.8792518 0.88737671,0.8792518 h 1.6645336 c 0.8047356,0 0.8873794,-0.081739 0.8873794,-0.8792518 V 2.1165654 0.9826912 L 2.9765636,0.13228811 Z"
     id="path918"
     inkscape:connector-curvature="0"
     sodipodi:nodetypes="scccssscccs" />
  <g
     style="display:inline;stroke-width:3.00000024;enable-background:new"
     transform="matrix(0.0881901,0,0,0.0881901,-28.220511,-4.9382998)"
     id="g1365">
    <path
       style="fill:#ffffff;stroke-width:1.33333325;enable-background:new"
       d="m 328,240.17383 -4,0.61719 v 6.41992 l 4,0.62109 z m -0.62483,2.75976 -0.58984,2.47852 -0.48438,-0.0371 c -0.11118,-0.55339 -0.24232,-1.10425 -0.34179,-1.66016 -0.0978,0.54003 -0.22392,1.07465 -0.33594,1.61133 -0.1605,-0.008 -0.32108,-0.0184 -0.48242,-0.0293 -0.13877,-0.73564 -0.30207,-1.46582 -0.43164,-2.20313 0.14295,-0.007 0.28674,-0.0126 0.42969,-0.0176 0.0861,0.5325 0.18257,1.06237 0.25781,1.59571 0.11787,-0.54671 0.23843,-1.09392 0.35547,-1.64063 0.15883,-0.009 0.31773,-0.0151 0.47656,-0.0234 0.11118,0.56427 0.22533,1.1277 0.3457,1.68946 0.0945,-0.58015 0.19964,-1.15897 0.30078,-1.73829 0.16719,-0.006 0.33365,-0.0154 0.5,-0.0254 z"
       transform="matrix(3,0,0,3,-640.00198,-648.50002)"
       id="path1361"
       inkscape:connector-curvature="0"
       sodipodi:nodetypes="ccccccccccccccccccc" />
    <path
       style="fill:#ffffff;stroke-width:3.99999976;enable-background:new"
       d="m 346.99805,75 h 9 l -0.002,17.499991 H 346.998 Z"
       id="path1363"
       inkscape:connector-curvature="0"
       sodipodi:nodetypes="ccccc" />
  </g>
  <path
     style="color:#000000;display:inline;overflow:visible;visibility:visible;opacity:0.1;fill:#ffffff;fill-opacity:1;fill-rule:nonzero;stroke:none;stroke-width:0.26457033;marker:none;enable-background:accumulate"
     d="M 2.1167101,0.2645706 V 3.968555 h 0.7683915 c 0.7428341,0 0.8190304,-0.076236 0.8190304,-0.8205807 V 2.1165628 1.0582815 L 2.9104211,0.2645706 Z"
     id="path1009"
     inkscape:connector-curvature="0"
     sodipodi:nodetypes="ccsscccc" />
  <path
     style="color:#000000;display:inline;overflow:visible;visibility:visible;opacity:0.1;fill:#ffffff;fill-opacity:1;fill-rule:nonzero;stroke:none;stroke-width:0.26457033;marker:none;enable-background:accumulate"
     d="M 0.52928821,2.1165628 V 3.1479743 C 0.52563721,3.8923085 0.60548711,3.968555 1.3483185,3.968555 h 1.5367831 c 0.7428341,0 0.8190304,-0.076236 0.8190304,-0.8205807 V 2.1165628 Z"
     id="path1016"
     inkscape:connector-curvature="0" />
  <path
     style="color:#000000;font-style:normal;font-variant:normal;font-weight:normal;font-stretch:normal;font-size:medium;line-height:normal;font-family:sans-serif;font-variant-ligatures:normal;font-variant-position:normal;font-variant-caps:normal;font-variant-numeric:normal;font-variant-alternates:normal;font-feature-settings:normal;text-indent:0;text-align:start;text-decoration:none;text-decoration-line:none;text-decoration-style:solid;text-decoration-color:#000000;letter-spacing:normal;word-spacing:normal;text-transform:none;writing-mode:lr-tb;direction:ltr;text-orientation:mixed;dominant-baseline:auto;baseline-shift:baseline;text-anchor:start;white-space:normal;shape-padding:0;clip-rule:nonzero;display:inline;overflow:visible;visibility:visible;opacity:0.4;isolation:auto;mix-blend-mode:normal;color-interpolation:sRGB;color-interpolation-filters:linearRGB;solid-color:#000000;solid-opacity:1;vector-effect:none;fill:#000000;fill-opacity:1;fill-rule:nonzero;stroke:none;stroke-width:0.52914065;stroke-linecap:butt;stroke-linejoin:miter;stroke-miterlimit:4;stroke-dasharray:none;stroke-dashoffset:0;stroke-opacity:1;marker:none;color-rendering:auto;image-rendering:auto;shape-rendering:auto;text-rendering:auto;enable-background:accumulate"
     d="m 1.3483185,3.1e-7 c -0.1902366,0 -0.3444308,0.003678 -0.48573255,0.0273883 C 0.72128159,0.05112059 0.57994549,0.10048411 0.47192936,0.2082462 0.36391588,0.3160057 0.31409464,0.4577995 0.29055582,0.5994161 0.26700907,0.7410406 0.26379454,0.8958618 0.2647073,1.0867017 V 2.1165628 3.1479743 C 0.26391359,3.3379781 0.2670883,3.4925374 0.2905558,3.6337095 0.3141026,3.7753287 0.3639132,3.9171199 0.47192934,4.0248794 0.57994547,4.1326415 0.72128157,4.1820183 0.86258593,4.205737 1.0038876,4.229469 1.1580819,4.233125 1.3483185,4.233125 h 1.5367831 c 0.1902367,0 0.3440949,-0.00362 0.4852167,-0.027388 C 3.5114428,4.1819786 3.6527948,4.1322076 3.7604564,4.0243634 3.868118,3.9165193 3.9176217,3.7749504 3.941314,3.6337095 3.9650089,3.492466 3.9687023,3.3385787 3.9687023,3.1479743 V 2.1165628 0.9487336 L 3.019969,3.1e-7 Z m 0,0.26457029 H 2.9104211 L 3.704132,1.0582815 v 1.0582813 1.0314115 c 0,0.7443448 -0.076196,0.8205807 -0.8190304,0.8205807 H 1.3483185 c -0.74283139,0 -0.82268137,-0.076246 -0.81903029,-0.8205807 V 2.1165628 1.0851513 C 0.52564771,0.3408171 0.60548711,0.2645706 1.3483185,0.2645706 Z"
     id="path928"
     inkscape:connector-curvature="0"
     sodipodi:nodetypes="scscccccccsscscscccsscccssscccs" />
  <path
     style="color:#000000;font-style:normal;font-variant:normal;font-weight:normal;font-stretch:normal;font-size:medium;line-height:normal;font-family:sans-serif;font-variant-ligatures:normal;font-variant-position:normal;font-variant-caps:normal;font-variant-numeric:normal;font-variant-alternates:normal;font-feature-settings:normal;text-indent:0;text-align:start;text-decoration:none;text-decoration-line:none;text-decoration-style:solid;text-decoration-color:#000000;letter-spacing:normal;word-spacing:normal;text-transform:none;writing-mode:lr-tb;direction:ltr;text-orientation:mixed;dominant-baseline:auto;baseline-shift:baseline;text-anchor:start;white-space:normal;shape-padding:0;clip-rule:nonzero;display:inline;overflow:visible;visibility:visible;opacity:0.4;isolation:auto;mix-blend-mode:normal;color-interpolation:sRGB;color-interpolation-filters:linearRGB;solid-color:#000000;solid-opacity:1;vector-effect:none;fill:url(#linearGradient993);fill-opacity:1;fill-rule:nonzero;stroke:none;stroke-width:0.52914065;stroke-linecap:butt;stroke-linejoin:miter;stroke-miterlimit:4;stroke-dasharray:none;stroke-dashoffset:0;stroke-opacity:1;marker:none;color-rendering:auto;image-rendering:auto;shape-rendering:auto;text-rendering:auto;enable-background:accumulate"
     clip-path="none"
     d="m 1.3483185,0.2645706 c -0.74283139,0 -0.82267079,0.076246 -0.81903029,0.8205807 V 2.1165628 3.1479743 C 0.52563721,3.8923085 0.60548711,3.968555 1.3483185,3.968555 h 1.5367831 c 0.7428341,0 0.8190304,-0.076236 0.8190304,-0.8205807 V 2.1165628 1.0582815 L 2.9104211,0.2645706 Z m 0,0.2645703 h 1.5621026 l 0.5291406,0.5291406 v 1.0582813 1.0314115 c 0,0.1815667 -0.00582,0.3159975 -0.019631,0.3984058 -0.013811,0.082406 -0.029841,0.09959 -0.034103,0.1038651 -0.00426,0.00426 -0.021245,0.020293 -0.1033491,0.034103 -0.082112,0.013816 -0.2161962,0.019636 -0.3973767,0.019636 H 1.3483185 c -0.1811778,0 -0.3153969,-0.0063 -0.39788727,-0.02016 -0.082493,-0.013837 -0.10001551,-0.029235 -0.10438092,-0.033587 -0.004365,-0.00437 -0.0199486,-0.021324 -0.0335898,-0.1033491 -0.0136254,-0.08203 -0.0194988,-0.216564 -0.0185993,-0.3978899 V 3.148469 2.1165628 1.0846354 1.0841063 c -7.9371e-4,-0.1813286 0.004974,-0.31586 0.0185993,-0.39789 0.0136254,-0.08203 0.0292218,-0.098992 0.0335898,-0.1033491 0.004365,-0.00436 0.02188,-0.019737 0.10438092,-0.033587 0.0824904,-0.013837 0.21670947,-0.02016 0.39788727,-0.02016 z"
     id="path937"
     inkscape:connector-curvature="0"
     sodipodi:nodetypes="scccssscccsscccscccssccccccccsccs" />
  <path
     inkscape:connector-curvature="0"
     style="color:#000000;display:inline;overflow:visible;visibility:visible;opacity:0.6;fill:#165d7c;fill-opacity:1;fill-rule:nonzero;stroke:none;stroke-width:0.06614863;marker:none;enable-background:accumulate"
     d="M 3.704132,1.3228519 V 1.0582815 L 2.9104211,0.2645706 H 2.6458507 v 0.4049434 0.01553 0.00833 c 0,0.5476103 0.073304,0.6320506 0.6221715,0.6293652 z"
     id="rect4158-0-3-62-2-3-7-3"
     sodipodi:nodetypes="ccccccscc" />
  <path
     inkscape:connector-curvature="0"
     style="color:#000000;display:inline;overflow:visible;visibility:visible;fill:#80a9e5;fill-opacity:1;fill-rule:nonzero;stroke:none;stroke-width:0.06614863;marker:none;enable-background:accumulate"
     d="M 3.704132,1.058181 2.9104211,0.2645706 v 0.2943848 0.012832 0.00688 c 0,0.4517776 0.020822,0.481764 0.4736364,0.4795495 z"
     id="rect4158-0-3-62-6-5-5"
     sodipodi:nodetypes="ccccscc" />
</svg>
